X:1
T:My God, my God, O tell me why
T:My God, my God, O tell me why (Benjamin Cooke)
C:Benjamin Cooke
Z:Text: James Merrick,
Z:on Ps. 22, vv. 1-6
%%score [ 1 2 3 ]
L:1/8
M:3/2
K:D
V:1 treble nm="[Soprano/ Tenor I]"
V:2 treble nm="[Alto/ Tenor I]"
V:3 bass nm="[Bass]"
V:1
"^Soft Voices & Slow time" z2 |: z4 z2 (FG) A2 d2 | B6 c2 d2 e2 | f6 (FG) A2 d2 | B6 c2 d2 e2 | %5
w: |Lord, _ what am|I? a man in|form, Yet _ bro- ther|to the tram- pled|
w: |My _ God, my|God, O tell me|why Un- * heed- ed|still as- cends my|
w: |Yet _ un- im-|peach’d thy faith ap-|pears, Thy _ sanc- ti-|ty my heart re-|
 f4 z2 f2 e3 e | d3 d c6 d2 | B6 e2 e3 d | c2 (Ad) (c4 B3) A | A8 z4 | z4 z2 e2 e2 e2 | %11
w: worm, An out- cast|from the hu- man|kind, To fierce de-|ri- sion’s _ rage _ con-|sign’d.|They shake the|
w: cry? Why thus from|my af- flict- ed|heart Thy pre- sence|and thy _ health _ de-|part?|E- ter- nal|
w: veres, O thou, to|whom in ho- mage|join The sons of|Ja- cob’s _ cho- * sen|line.|Thee, Lord, our|
 d6 d2 d2 d2 | d6 (d=c) (BA)(GF) | E2 =c2 A6 d2 | B6 B2 B2 B2 | A6 (B=c) B2 A2 | G6 B2 e2 d2 | %17
w: head, they shout, they|gaze; Each _ eye, _ each _|lip, con- tempt be-|trays; ‘On God,’ they|cry, ‘thy _ hope was|stay’d; Be God, if|
w: Lord, through- out the|day With _ fruit- * less _|plaint to thee I|pray; Nor sleeps the|an- guish _ of my|soul When night’s dark|
w: sires their strength con-|fess’d, And _ found _ thee, _|as their stead- fast|breast To thee its|full af- * fi- ance|gave, Nor slow to|
 c2 d2 d4 c4 |1,2 d6 d2 d2 d2 | c6 d2 c2 B2 | ^A6 c2 F2 A2 | B2 c2 (d4 c3) B | B8 z4 :|3 %23
w: his thou art, thy||||||
w: shades in- volve the|pole, nor sleeps the|an- guish of my|soul when night’s dark|shades in- volve _ the|pole.|
w: hear, nor weak to|save, to thee its|full af- fi- ance|gave, nor slow to|hear, nor weak _ to|save.|
 d6 c2 B2 A2 || G2 F2 E6 E2 | D8 |] %26
w: |||
w: aid, be God, if|his thou art, thy|aid.’|
w: |||
V:2
 z2 |: z4 z2 (DE) F2 F2 | G6 A2 B2 c2 | d6 (DE) F2 F2 | G6 A2 B2 c2 | d4 d4 d2 c2 | %6
w: |Lord, _ what am|I? a man in|form, Yet _ bro- ther|to the tram- pled|worm, An out- cast|
w: |My _ God, my|God, O tell me|why Un- * heed- ed|still as- cends my|cry? Why thus from|
w: |Yet _ un- im-|peach’d thy faith ap-|pears, Thy _ sanc- ti-|ty my heart re-|veres, O thou, to|
 c2 B2 (B2 A4) B2 | ^G2 E2 (F2 G2) (A2 B2) | c3 B A4 (^G3 A) | A6 E2 E2 E2 | A2 B2 =c2 c2 c4- | %11
w: from the hu- * man|kind, To fierce _ de- *|ri- sion’s rage con- *|sign’d. They shake the|head, they shake the head,|
w: my af- flict- * ed|heart Thy pre- * sence _|and thy health de- *|part? E- ter- nal|Lord, e- ter- nal Lord|
w: whom in ho- * mage|join The sons _ of _|Ja- cob’s cho- sen _|line. Thee, Lord, our|sires, thee, Lord, our sires|
 c4 =c4 B2 A2 | B2 G2 d6 d2 | G3 G (G2 F4) F2 | G6 G2 G2 G2 | F6 F2 F2 F2 | G2 (BA) G4 G4 | %17
w: _ they shout, they|gaze; Each eye, each|lip, con- tempt _ be-|trays; ‘On God,’ they|cry, ‘thy hope was|stay’d; Be _ God, if|
w: _ through- out the|day With fruit- less|plaint to thee _ I|pray; Nor sleeps the|an- guish of my|soul When _ night’s dark|
w: _ their strength con-|fess’d, And found thee,|as their stead- * fast|breast To thee its|full af- fi- ance|gave, Nor _ slow to|
 G2 F2 (B2 E4) (FG) |1,2 F6 F2 F2 F2 | G6 F2 G2 G2 | F6 ^A2 B2 F2 | B6 B2 ^A3 B | B8 z4 :|3 %23
w: his thou art, _ thy _||||||
w: shades in- volve _ the _|pole, nor sleeps the|an- guish of my|soul when night’s dark|shades in- volve the|pole.|
w: hear, nor weak _ to _|save, to thee its|full af- fi- ance|gave, nor slow to|hear, nor weak to|save.|
 (F2 G2) A4 G2 F2 || E2 D2 C6 D2 | D8 |] %26
w: |||
w: aid, _ be God, if|his thou art, thy|aid.’|
w: |||
V:3
 D,2 |: D,2 D,2 D,8- | D,2 D,2 D,4 D,4 | D,2 D,2 D,4 D,4 | D,2 G,,2 G,4 (F,2 E,2) | D,8 A,4 | %6
w: |what am I?|_ a man in|form, Yet bro- ther|to the tram- pled _|worm, An|
w: My|God, my God,|_ O tell me|why Un- heed- ed|still as- cends my _|cry? Why|
w: |un- im- peach’d|_ thy faith ap-|pears, Thy sanc- ti-|ty my heart re- *|veres, O|
 B,,3 B,, C,2 (D,E,) (F,E,) D,2 | E,6 C,2 F,2 ^G,2 | A,2 (F,D,) E,6 E,2 | A,,8 z4 | %10
w: out- cast from the _ hu- * man|kind, To fierce de-|ri- sion’s _ rage con-|sign’d.|
w: thus from my af- * flict- * ed|heart Thy pre- sence|and thy _ health de-|part?|
w: thou, to whom in _ ho- * mage|join The sons of|Ja- cob’s _ cho- sen|line.|
 z2 E,2 A,4 A,4 | F,6 F,2 F,2 F,2 | G,6 B,,2 B,,2 B,,2 | =C,2 C,2 D,4 D,4 | %14
w: They shake the|head, they shout, they|gaze; Each eye, each|lip, con- tempt be-|
w: E- ter- nal|Lord, through- out the|day With fruit- less|plaint to thee I|
w: Thee, Lord, our|sires their strength con-|fess’d, And found thee,|as their stead- fast|
 G,2 (G,F,) E,2 E,2 E,4- | E,2 E,2 ^D,6 D,2 | E,2 (G,F,) (E,2 D,2) (C,2 B,,2) | %17
w: trays; ‘On _ God,’ they cry,|_ ‘thy hope was|stay’d; Be _ God, _ if _|
w: pray, Nor _ sleeps the an-|* guish of my|soul When _ night’s _ dark _|
w: breast To _ thee its full|_ af- fi- ance|gave, Nor _ slow _ to _|
 A,,2 B,,2 G,,4 A,,4 |1,2 D,6 B,,2 B,,2 B,,2 | E,6 D,2 E,2 E,2 | F,6 E,2 D,2 C,2 | %21
w: his thou art, thy||||
w: shades in- volve the|pole, nor sleeps the|an- guish of my|soul when night’s dark|
w: hear, nor weak to|save, to thee its|full af- fi- ance|gave, nor slow to|
"^Notes:This setting is attributed to 'Dr. Cooke' in the source.Only the first verse of the three given here, the opening word of the second verse in the bass part (‘Yet’) and the coda(the last three bars), are underlaid in the source: the remainder of the text is printed after the music and has beenunderlaid editorially." D,2 E,2 F,6 F,2 | %22
w: |
w: shades in- volve the|
w: hear, nor weak to|
 B,,8 (B,,2 C,2) :|3 (D,2 E,2) F,4 G,2 D,2 || G,,2 A,,2 A,,6 A,,2 | D,8 |] %26
w: ||||
w: pole. Yet _|aid, _ be God, if|his thou art, thy|aid.’|
w: save. Lord, _|_ _ _ _ _|||

